;Generated with Cura_SteamEngine 15.05
; Default start code
G28 ; Home extruder
G1 Z15 F100
M107 ; Turn off fan
G90 ; Absolute positioning
M82 ; Extruder in absolute mode
M190 S50
; Activate all used extruder
M104 T0 S210
G92 E0 ; Reset extruder position
; Wait for all used extruders to reach temperature
M109 T0 S210
;Layer count: 50
;LAYER:0
M107
G0 F9000 X150.821 Y134.784 Z0.300
;TYPE:SKIRT
G1 F1800 X151.879 Y133.599 E0.07925
G1 X153.184 Y132.644 E0.15993
G1 X154.644 Y131.994 E0.23966
G1 X156.202 Y131.662 E0.31914
G1 X157.797 Y131.662 E0.39871
G1 X159.355 Y131.993 E0.47818
G1 X160.809 Y132.641 E0.55760
G1 X162.098 Y133.577 E0.63707
G1 X163.148 Y134.743 E0.71535
G1 X163.946 Y136.113 E0.79445
G1 X164.301 Y137.193 E0.85117
G1 X164.444 Y137.574 E0.87147
G1 X164.573 Y138.802 E0.93308
G1 X164.622 Y139.218 E0.95397
G1 X164.492 Y140.454 E1.01598
G1 X164.446 Y140.844 E1.03557
G1 X164.060 Y142.038 E1.09817
G1 X163.921 Y142.409 E1.11794
G1 X163.177 Y143.698 E1.19219
G1 X162.121 Y144.879 E1.27123
G1 X160.818 Y145.835 E1.35186
G1 X160.700 Y145.888 E1.35831
G1 X160.700 Y152.457 E1.68604
G1 X160.759 Y152.560 E1.69196
G1 X161.028 Y153.369 E1.73450
G1 X161.120 Y154.240 E1.77819
G1 X161.028 Y155.111 E1.82189
G1 X160.759 Y155.920 E1.86442
G1 X160.333 Y156.664 E1.90719
G1 X159.754 Y157.300 E1.95010
G1 X159.060 Y157.811 E1.99310
G1 X158.266 Y158.158 E2.03633
G1 X157.436 Y158.337 E2.07869
G1 X156.554 Y158.337 E2.12270
G1 X155.711 Y158.152 E2.16575
G1 X154.936 Y157.805 E2.20812
G1 X154.250 Y157.306 E2.25044
G1 X153.665 Y156.663 E2.29381
G1 X153.240 Y155.920 E2.33651
G1 X152.966 Y155.095 E2.37988
G1 X152.883 Y154.240 E2.42274
G1 X152.966 Y153.385 E2.46560
G1 X153.240 Y152.560 E2.50897
G1 X153.400 Y152.280 E2.52505
G1 X153.400 Y145.932 E2.84176
G1 X153.189 Y145.838 E2.85328
G1 X151.901 Y144.902 E2.93272
G1 X150.852 Y143.738 E3.01089
G1 X150.053 Y142.367 E3.09006
G1 X149.698 Y141.288 E3.14673
G1 X149.554 Y140.904 E3.16719
G1 X149.421 Y139.630 E3.23110
G1 X149.378 Y139.264 E3.24948
G1 X149.507 Y138.028 E3.31148
G1 X149.553 Y137.636 E3.33117
G1 X149.939 Y136.442 E3.39378
G1 X150.078 Y136.071 E3.41354
G1 X150.821 Y134.784 E3.48768
G0 F9000 X151.147 Y135.019
G1 F1800 X152.149 Y133.897 E3.56273
G1 X153.386 Y132.992 E3.63920
G1 X154.768 Y132.376 E3.71469
G1 X156.244 Y132.062 E3.78997
G1 X157.755 Y132.062 E3.86536
G1 X159.230 Y132.376 E3.94059
G1 X160.608 Y132.989 E4.01584
G1 X161.829 Y133.876 E4.09113
G1 X162.823 Y134.980 E4.16524
G1 X163.580 Y136.278 E4.24021
G1 X163.925 Y137.329 E4.29540
G1 X164.052 Y137.666 E4.31336
G1 X164.176 Y138.849 E4.37271
G1 X164.220 Y139.221 E4.39140
G1 X164.094 Y140.410 E4.45105
G1 X164.053 Y140.758 E4.46853
G1 X163.682 Y141.906 E4.52872
G1 X163.558 Y142.238 E4.54640
G1 X162.851 Y143.462 E4.61692
G1 X161.851 Y144.581 E4.69179
G1 X160.616 Y145.488 E4.76824
G1 X160.300 Y145.628 E4.78548
G1 X160.300 Y152.563 E5.13147
G1 X160.392 Y152.724 E5.14072
G1 X160.635 Y153.454 E5.17911
G1 X160.718 Y154.240 E5.21854
G1 X160.635 Y155.026 E5.25797
G1 X160.392 Y155.756 E5.29635
G1 X160.008 Y156.428 E5.33497
G1 X159.485 Y157.002 E5.37371
G1 X158.858 Y157.462 E5.41251
G1 X158.143 Y157.775 E5.45145
G1 X157.393 Y157.937 E5.48973
G1 X156.597 Y157.937 E5.52944
G1 X155.837 Y157.770 E5.56826
G1 X155.138 Y157.457 E5.60647
G1 X154.518 Y157.007 E5.64469
G1 X153.991 Y156.427 E5.68379
G1 X153.607 Y155.756 E5.72236
G1 X153.359 Y155.012 E5.76148
G1 X153.285 Y154.240 E5.80018
G1 X153.359 Y153.468 E5.83887
G1 X153.607 Y152.724 E5.87799
G1 X153.800 Y152.386 E5.89741
G1 X153.800 Y145.673 E6.23233
G1 X153.391 Y145.490 E6.25468
G1 X152.171 Y144.603 E6.32993
G1 X151.177 Y143.501 E6.40397
G1 X150.419 Y142.202 E6.47901
G1 X150.073 Y141.148 E6.53435
G1 X149.947 Y140.812 E6.55226
G1 X149.819 Y139.589 E6.61360
G1 X149.780 Y139.261 E6.63008
G1 X149.904 Y138.072 E6.68972
G1 X149.946 Y137.722 E6.70731
G1 X150.317 Y136.574 E6.76750
G1 X150.441 Y136.242 E6.78518
G1 X151.147 Y135.019 E6.85564
G0 F9000 X140.301 Y137.193
G1 F1800 X140.444 Y137.574 E6.87594
G1 X140.573 Y138.802 E6.93754
G1 X140.622 Y139.218 E6.95844
G1 X140.492 Y140.454 E7.02044
G1 X140.462 Y140.704 E7.03301
G1 X137.058 Y154.900 E7.76132
G1 X136.953 Y155.337 E7.78375
G1 X136.759 Y155.920 E7.81440
G1 X136.333 Y156.664 E7.85717
G1 X135.754 Y157.300 E7.90008
G1 X135.060 Y157.811 E7.94308
G1 X134.266 Y158.158 E7.98631
G1 X133.436 Y158.337 E8.02867
G1 X132.554 Y158.337 E8.07267
G1 X131.711 Y158.152 E8.11573
G1 X130.936 Y157.805 E8.15809
G1 X130.250 Y157.306 E8.20042
G1 X129.665 Y156.663 E8.24379
G1 X129.240 Y155.920 E8.28649
G1 X129.046 Y155.335 E8.31724
G1 X125.655 Y141.198 E9.04254
G1 X125.531 Y140.684 E9.06892
G1 X125.421 Y139.630 E9.12179
G1 X125.378 Y139.264 E9.14018
G1 X125.507 Y138.028 E9.20218
G1 X125.553 Y137.636 E9.22187
G1 X125.939 Y136.442 E9.28447
G1 X126.078 Y136.071 E9.30424
G1 X126.821 Y134.784 E9.37838
G1 X127.879 Y133.599 E9.45763
G1 X129.184 Y132.644 E9.53831
G1 X130.644 Y131.994 E9.61804
G1 X132.202 Y131.662 E9.69752
G1 X133.797 Y131.662 E9.77709
G1 X135.355 Y131.993 E9.85656
G1 X136.809 Y132.641 E9.93597
G1 X138.098 Y133.577 E10.01545
G1 X139.148 Y134.743 E10.09373
G1 X139.946 Y136.113 E10.17283
G1 X140.301 Y137.193 E10.22955
G0 F9000 X139.925 Y137.329
G1 F1800 X140.052 Y137.666 E10.24752
G1 X140.176 Y138.849 E10.30686
G1 X140.220 Y139.221 E10.32555
G1 X140.094 Y140.410 E10.38520
G1 X140.068 Y140.634 E10.39645
G1 X136.669 Y154.806 E11.12354
G1 X136.568 Y155.227 E11.14514
G1 X136.392 Y155.756 E11.17296
G1 X136.008 Y156.428 E11.21157
G1 X135.485 Y157.002 E11.25031
G1 X134.858 Y157.462 E11.28911
G1 X134.143 Y157.775 E11.32805
G1 X133.393 Y157.937 E11.36633
G1 X132.597 Y157.937 E11.40604
G1 X131.837 Y157.770 E11.44486
G1 X131.138 Y157.457 E11.48307
G1 X130.518 Y157.007 E11.52129
G1 X129.991 Y156.427 E11.56039
G1 X129.607 Y155.756 E11.59896
G1 X129.430 Y155.225 E11.62689
G1 X126.044 Y141.104 E12.35136
G1 X125.926 Y140.616 E12.37641
G1 X125.819 Y139.589 E12.42792
G1 X125.780 Y139.261 E12.44440
G1 X125.904 Y138.072 E12.50404
G1 X125.946 Y137.722 E12.52163
G1 X126.317 Y136.574 E12.58182
G1 X126.441 Y136.242 E12.59950
G1 X127.147 Y135.019 E12.66995
G1 X128.149 Y133.897 E12.74500
G1 X129.386 Y132.992 E12.82147
G1 X130.768 Y132.376 E12.89695
G1 X132.244 Y132.062 E12.97224
G1 X133.755 Y132.062 E13.04762
G1 X135.230 Y132.376 E13.12286
G1 X136.608 Y132.989 E13.19811
G1 X137.829 Y133.876 E13.27340
G1 X138.823 Y134.980 E13.34751
G1 X139.580 Y136.278 E13.42248
G1 X139.925 Y137.329 E13.47767
G1 F2400 E9.47767
G0 F9000 X136.322 Y138.536
;TYPE:WALL-INNER
G1 F2400 E13.47767
G1 F1800 X136.397 Y139.238 E13.51289
G1 X136.319 Y139.974 E13.54981
G1 X133.000 Y153.814 E14.25987
G1 X129.680 Y139.975 E14.96989
G1 X129.603 Y139.240 E15.00676
G1 X129.677 Y138.534 E15.04218
G1 X129.895 Y137.862 E15.07742
G1 X130.242 Y137.259 E15.11213
G1 X130.720 Y136.724 E15.14793
G1 X131.302 Y136.298 E15.18391
G1 X131.948 Y136.010 E15.21920
G1 X132.645 Y135.862 E15.25474
G1 X133.354 Y135.862 E15.29012
G1 X134.051 Y136.010 E15.32567
G1 X134.699 Y136.298 E15.36104
G1 X135.273 Y136.715 E15.39644
G1 X135.737 Y137.232 E15.43110
G1 X136.094 Y137.844 E15.46645
G1 X136.322 Y138.536 E15.50280
G0 F9000 X135.546 Y138.699
G1 F1800 X135.378 Y138.181 E15.52996
G1 X135.105 Y137.708 E15.55721
G1 X134.734 Y137.300 E15.58472
G1 X134.294 Y136.982 E15.61181
G1 X133.804 Y136.764 E15.63856
G1 X133.271 Y136.651 E15.66575
G1 X132.717 Y136.652 E15.69338
G1 X132.185 Y136.768 E15.72055
G1 X131.691 Y136.990 E15.74757
G1 X131.258 Y137.305 E15.77428
G1 X130.893 Y137.709 E15.80145
G1 X130.621 Y138.181 E15.82863
G1 X130.453 Y138.699 E15.85579
G1 X130.397 Y139.240 E15.88293
G1 X130.453 Y139.781 E15.91006
G1 X130.621 Y140.298 E15.93718
G1 X130.893 Y140.770 E15.96436
G1 X131.258 Y141.175 E15.99156
G1 X131.706 Y141.498 E16.01912
G1 X132.194 Y141.716 E16.04578
G1 X132.728 Y141.829 E16.07301
G1 X133.282 Y141.828 E16.10065
G1 X133.814 Y141.712 E16.12782
G1 X134.309 Y141.490 E16.15488
G1 X134.742 Y141.174 E16.18163
G1 X135.106 Y140.770 E16.20876
G1 X135.378 Y140.298 E16.23594
G1 X135.546 Y139.782 E16.26301
G1 X135.603 Y139.240 E16.29020
G1 X135.546 Y138.699 E16.31734
G0 F9000 X135.153 Y138.782
;TYPE:WALL-OUTER
G1 F1800 X135.011 Y138.344 E16.34031
G1 X134.780 Y137.945 E16.36331
G1 X134.466 Y137.600 E16.38659
G1 X134.093 Y137.331 E16.40953
G1 X133.680 Y137.147 E16.43209
G1 X133.230 Y137.051 E16.45504
G1 X132.760 Y137.052 E16.47849
G1 X132.311 Y137.150 E16.50142
G1 X131.893 Y137.338 E16.52429
G1 X131.527 Y137.604 E16.54686
G1 X131.218 Y137.946 E16.56985
G1 X130.988 Y138.344 E16.59279
G1 X130.846 Y138.782 E16.61576
G1 X130.799 Y139.240 E16.63873
G1 X130.846 Y139.698 E16.66170
G1 X130.988 Y140.135 E16.68462
G1 X131.218 Y140.533 E16.70756
G1 X131.527 Y140.876 E16.73059
G1 X131.907 Y141.149 E16.75393
G1 X132.319 Y141.333 E16.77644
G1 X132.769 Y141.429 E16.79940
G1 X133.239 Y141.428 E16.82285
G1 X133.688 Y141.330 E16.84578
G1 X134.107 Y141.142 E16.86869
G1 X134.473 Y140.875 E16.89129
G1 X134.781 Y140.533 E16.91425
G1 X135.011 Y140.135 E16.93718
G1 X135.153 Y139.698 E16.96011
G1 X135.201 Y139.240 E16.98308
G1 X135.153 Y138.782 E17.00606
G0 F9000 X135.438 Y138.691
G0 X136.421 Y138.512
G0 X136.716 Y138.454
G1 F1800 X136.799 Y139.241 E17.04554
G1 X136.715 Y140.032 E17.08522
G1 X136.714 Y140.043 E17.08578
G1 X133.299 Y154.281 E17.81626
G1 X133.272 Y154.361 E17.82047
G1 X133.241 Y154.415 E17.82358
G1 X133.196 Y154.465 E17.82693
G1 X133.150 Y154.499 E17.82979
G1 X133.096 Y154.523 E17.83274
G1 X133.029 Y154.537 E17.83615
G1 X132.965 Y154.537 E17.83934
G1 X132.849 Y154.497 E17.84547
G1 X132.799 Y154.461 E17.84854
G1 X132.758 Y154.415 E17.85161
G1 X132.727 Y154.361 E17.85472
G1 X129.285 Y140.042 E18.58945
G1 X129.201 Y139.238 E18.62978
G1 X129.284 Y138.448 E18.66941
G1 X129.527 Y137.698 E18.70874
G1 X129.917 Y137.021 E18.74772
G1 X130.446 Y136.428 E18.78737
G1 X131.099 Y135.951 E18.82771
G1 X131.824 Y135.628 E18.86731
G1 X132.604 Y135.462 E18.90709
G1 X133.395 Y135.462 E18.94656
G1 X134.175 Y135.628 E18.98634
G1 X134.898 Y135.950 E19.02583
G1 X135.541 Y136.417 E19.06548
G1 X136.061 Y136.995 E19.10426
G1 X136.462 Y137.683 E19.14399
G1 X136.716 Y138.454 E19.18449
G0 F9000 X136.203 Y138.749
;TYPE:SKIN
G1 F1800 X135.410 Y137.956 E19.24044
G0 F9000 X135.988 Y137.968
G1 F1800 X134.289 Y136.269 E19.36032
G0 F9000 X134.273 Y136.818
G1 F1800 X133.488 Y136.033 E19.41570
G0 F9000 X133.429 Y136.540
G1 F1800 X132.637 Y136.031 E19.45363
G1 X132.589 Y136.549 E19.48523
G1 X131.733 Y136.259 E19.51454
G1 X131.734 Y136.825 E19.54165
G1 X131.019 Y136.676 E19.56724
G1 X131.080 Y137.302 E19.59282
G1 X130.452 Y137.240 E19.61816
G1 X130.593 Y137.947 E19.64442
G1 X130.032 Y137.952 E19.67066
G1 X130.314 Y138.799 E19.69916
G1 X129.785 Y138.836 E19.73190
G1 X130.297 Y139.630 E19.77904
G0 F9000 X129.790 Y139.690
G1 F1800 X130.542 Y140.442 E19.83209
G0 F9000 X129.923 Y140.388
G1 F1800 X134.886 Y145.351 E20.18226
G0 F9000 X134.995 Y144.895
G1 F1800 X131.787 Y141.687 E20.40860
G0 F9000 X132.613 Y141.947
G1 F1800 X135.104 Y144.438 E20.58436
G0 F9000 X135.214 Y143.982
G1 F1800 X133.200 Y141.968 E20.72645
G0 F9000 X133.681 Y141.883
G1 F1800 X135.323 Y143.526 E20.84234
G0 F9000 X135.433 Y143.070
G1 F1800 X134.099 Y141.736 E20.93646
G0 F9000 X134.473 Y141.544
G1 F1800 X135.542 Y142.613 E21.01189
G0 F9000 X135.652 Y142.157
G1 F1800 X134.800 Y141.305 E21.07200
G0 F9000 X135.074 Y141.014
G1 F1800 X135.761 Y141.701 E21.12047
G0 F9000 X135.871 Y141.245
G1 F1800 X135.415 Y140.506 E21.15968
G1 X136.034 Y140.560 E21.19238
G1 X135.690 Y139.650 E21.22296
G1 X136.216 Y139.610 E21.25559
G1 X135.698 Y138.809 E21.30319
G0 F9000 X135.104 Y140.768
G0 X133.813 Y141.711
G0 X132.195 Y141.714
G0 X130.101 Y141.132
G1 F1800 X134.776 Y145.807 E21.63303
G0 F9000 X134.667 Y146.263
G1 F1800 X130.280 Y141.876 E21.94256
G0 F9000 X130.458 Y142.620
G1 F1800 X134.557 Y146.719 E22.23176
G0 F9000 X134.448 Y147.176
G1 F1800 X130.637 Y143.365 E22.50065
G0 F9000 X130.815 Y144.109
G1 F1800 X134.338 Y147.632 E22.74922
G0 F9000 X134.229 Y148.088
G1 F1800 X130.994 Y144.853 E22.97746
G0 F9000 X131.172 Y145.597
G1 F1800 X134.119 Y148.544 E23.18539
G0 F9000 X134.010 Y149.001
G1 F1800 X131.351 Y146.342 E23.37300
G0 F9000 X131.529 Y147.085
G1 F1800 X133.901 Y149.457 E23.54036
G0 F9000 X133.791 Y149.913
G1 F1800 X131.708 Y147.830 E23.68732
G0 F9000 X131.886 Y148.574
G1 F1800 X133.682 Y150.369 E23.81400
G0 F9000 X133.573 Y150.826
G1 F1800 X132.065 Y149.319 E23.92037
G0 F9000 X132.243 Y150.062
G1 F1800 X133.463 Y151.282 E24.00644
G0 F9000 X133.353 Y151.738
G1 F1800 X132.422 Y150.807 E24.07213
G0 F9000 X132.600 Y151.551
G1 F1800 X133.244 Y152.194 E24.11753
G0 F9000 X133.135 Y152.651
G1 F1800 X132.779 Y152.295 E24.14265
G1 F2400 E20.14265
G0 F9000 X153.905 Y140.636
;TYPE:WALL-INNER
G1 F2400 E24.14265
G1 F1800 X153.677 Y139.944 E24.17900
G1 X153.603 Y139.240 E24.21432
G1 X153.677 Y138.534 E24.24973
G1 X153.895 Y137.862 E24.28498
G1 X154.242 Y137.259 E24.31969
G1 X154.720 Y136.724 E24.35548
G1 X155.302 Y136.298 E24.39146
G1 X155.948 Y136.010 E24.42675
G1 X156.645 Y135.862 E24.46230
G1 X157.354 Y135.862 E24.49767
G1 X158.051 Y136.010 E24.53322
G1 X158.699 Y136.298 E24.56860
G1 X159.273 Y136.715 E24.60400
G1 X159.737 Y137.232 E24.63865
G1 X160.094 Y137.844 E24.67400
G1 X160.322 Y138.536 E24.71035
G1 X160.397 Y139.238 E24.74557
G1 X160.322 Y139.946 E24.78109
G1 X160.104 Y140.618 E24.81634
G1 X159.755 Y141.224 E24.85123
G1 X159.284 Y141.751 E24.88649
G1 X158.696 Y142.183 E24.92289
G1 X158.051 Y142.470 E24.95811
G1 X157.354 Y142.618 E24.99366
G1 X156.631 Y142.615 E25.02973
G1 X155.948 Y142.470 E25.06457
G1 X155.302 Y142.182 E25.09985
G1 X154.729 Y141.765 E25.13521
G1 X154.260 Y141.245 E25.17015
G1 X153.905 Y140.636 E25.20531
G0 F9000 X153.537 Y140.797
;TYPE:WALL-OUTER
G1 F1800 X153.283 Y140.026 E25.24581
G1 X153.201 Y139.238 E25.28534
G1 X153.284 Y138.448 E25.32497
G1 X153.527 Y137.698 E25.36430
G1 X153.917 Y137.021 E25.40328
G1 X154.446 Y136.428 E25.44293
G1 X155.099 Y135.951 E25.48327
G1 X155.824 Y135.628 E25.52287
G1 X156.604 Y135.462 E25.56266
G1 X157.395 Y135.462 E25.60212
G1 X158.175 Y135.628 E25.64190
G1 X158.898 Y135.950 E25.68139
G1 X159.541 Y136.417 E25.72104
G1 X160.061 Y136.995 E25.75983
G1 X160.462 Y137.683 E25.79956
G1 X160.716 Y138.454 E25.84006
G1 X160.799 Y139.241 E25.87954
G1 X160.715 Y140.030 E25.91912
G1 X160.473 Y140.781 E25.95849
G1 X160.082 Y141.459 E25.99753
G1 X159.553 Y142.051 E26.03714
G1 X158.901 Y142.529 E26.07748
G1 X158.175 Y142.852 E26.11712
G1 X157.395 Y143.018 E26.15691
G1 X156.589 Y143.015 E26.19712
G1 X155.824 Y142.852 E26.23614
G1 X155.102 Y142.530 E26.27558
G1 X154.458 Y142.062 E26.31530
G1 X153.937 Y141.485 E26.35408
G1 X153.537 Y140.797 E26.39379
G1 F2400 E22.39379
G0 F9000 X156.905 Y153.956
G1 F2400 E26.39379
G1 F1800 X156.968 Y153.943 E26.39700
G1 X157.031 Y153.943 E26.40014
G1 X157.092 Y153.955 E26.40324
G1 X157.151 Y153.982 E26.40648
G1 X157.197 Y154.016 E26.40933
G1 X157.241 Y154.065 E26.41262
G1 X157.272 Y154.119 E26.41572
G1 X157.292 Y154.179 E26.41888
G1 X157.299 Y154.240 E26.42194
G1 X157.292 Y154.301 E26.42501
G1 X157.272 Y154.361 E26.42816
G1 X157.241 Y154.415 E26.43127
G1 X157.196 Y154.465 E26.43462
G1 X157.150 Y154.499 E26.43748
G1 X157.096 Y154.523 E26.44043
G1 X157.029 Y154.537 E26.44384
G1 X156.965 Y154.537 E26.44703
G1 X156.849 Y154.497 E26.45316
G1 X156.799 Y154.461 E26.45623
G1 X156.758 Y154.415 E26.45930
G1 X156.727 Y154.361 E26.46241
G1 X156.707 Y154.301 E26.46557
G1 X156.701 Y154.240 E26.46862
G1 X156.707 Y154.179 E26.47168
G1 X156.727 Y154.119 E26.47484
G1 X156.758 Y154.065 E26.47794
G1 X156.801 Y154.016 E26.48120
G1 X156.852 Y153.980 E26.48431
G1 X156.905 Y153.956 E26.48721
G1 F2400 E22.48721
G0 F9000 X156.900 Y142.475
;TYPE:SKIN
G1 F2400 E26.48721
G1 F1800 X153.752 Y139.327 E26.70932
G0 F9000 X153.788 Y138.797
G1 F1800 X157.445 Y142.454 E26.96734
G0 F9000 X157.911 Y142.355
G1 F1800 X153.888 Y138.332 E27.25119
G0 F9000 X154.029 Y137.907
G1 F1800 X158.318 Y142.196 E27.55380
G0 F9000 X158.695 Y142.008
G1 F1800 X154.235 Y137.547 E27.86851
G0 F9000 X154.467 Y137.214
