;Generated with Cura_SteamEngine 15.05
; Default start code
G28 ; Home extruder
G1 Z15 F100
M107 ; Turn off fan
G90 ; Absolute positioning
M82 ; Extruder in absolute mode
M190 S50
; Activate all used extruder
M104 T0 S210
G92 E0 ; Reset extruder position
; Wait for all used extruders to reach temperature
M109 T0 S210
;Layer count: 80
;LAYER:0
M107
G0 F9000 X109.800 Y129.800 Z0.300
;TYPE:SKIRT
G1 F1800 X180.200 Y129.800 E3.51227
G1 X180.200 Y160.200 E5.02893
G1 X109.800 Y160.200 E8.54120
G1 X109.800 Y129.800 E10.05786
G1 F2400 E6.05786
G0 F9000 X113.600 Y133.600
;TYPE:WALL-INNER
G1 F2400 E10.05786
G1 F1800 X176.400 Y133.600 E13.19097
G1 X176.400 Y156.400 E14.32847
G1 X113.600 Y156.400 E17.46157
G1 X113.600 Y133.600 E18.59907
G0 F9000 X113.200 Y133.200
;TYPE:WALL-OUTER
G1 F1800 X176.800 Y133.200 E21.77208
G1 X176.800 Y156.800 E22.94949
G1 X113.200 Y156.800 E26.12251
G1 X113.200 Y133.200 E27.29992
G0 F9000 X113.739 Y133.821
;TYPE:SKIN
G1 F1800 X136.177 Y156.259 E28.88304
G0 F9000 X135.611 Y156.259
G1 F1800 X113.739 Y134.387 E30.42623
G0 F9000 X113.739 Y134.952
G1 F1800 X135.046 Y156.259 E31.92955
G0 F9000 X134.480 Y156.259
G1 F1800 X113.739 Y135.518 E33.39294
G0 F9000 X113.739 Y136.084
G1 F1800 X133.914 Y156.259 E34.81640
G0 F9000 X133.349 Y156.259
G1 F1800 X113.739 Y136.649 E36.19999
G0 F9000 X113.739 Y137.215
G1 F1800 X132.783 Y156.259 E37.54365
G0 F9000 X132.217 Y156.259
G1 F1800 X113.739 Y137.781 E38.84737
G0 F9000 X113.739 Y138.346
G1 F1800 X131.651 Y156.259 E40.11119
G0 F9000 X131.086 Y156.259
G1 F1800 X113.739 Y138.912 E41.33512
G0 F9000 X113.739 Y139.478
G1 F1800 X130.520 Y156.259 E42.51911
G0 F9000 X129.954 Y156.259
G1 F1800 X113.739 Y140.043 E43.66320
G0 F9000 X113.739 Y140.609
G1 F1800 X129.389 Y156.259 E44.76739
G0 F9000 X128.823 Y156.259
G1 F1800 X113.739 Y141.175 E45.83165
G0 F9000 X113.739 Y141.740
G1 F1800 X128.257 Y156.259 E46.85601
G0 F9000 X127.692 Y156.259
G1 F1800 X113.739 Y142.306 E47.84047
G0 F9000 X113.739 Y142.872
G1 F1800 X127.126 Y156.259 E48.78499
G0 F9000 X126.560 Y156.259
G1 F1800 X113.739 Y143.438 E49.68958
G0 F9000 X113.739 Y144.003
G1 F1800 X125.995 Y156.259 E50.55431
G0 F9000 X125.429 Y156.259
G1 F1800 X113.739 Y144.569 E51.37910
G0 F9000 X113.739 Y145.135
G1 F1800 X124.863 Y156.259 E52.16396
G0 F9000 X124.298 Y156.259
G1 F1800 X113.739 Y145.700 E52.90895
G0 F9000 X113.739 Y146.266
G1 F1800 X123.732 Y156.259 E53.61401
G0 F9000 X123.166 Y156.259
G1 F1800 X113.739 Y146.832 E54.27914
G0 F9000 X113.739 Y147.397
G1 F1800 X122.601 Y156.259 E54.90440
G0 F9000 X122.035 Y156.259
G1 F1800 X113.739 Y147.963 E55.48973
G0 F9000 X113.739 Y148.529
G1 F1800 X121.469 Y156.259 E56.03512
G0 F9000 X120.903 Y156.259
G1 F1800 X113.739 Y149.094 E56.54062
G0 F9000 X113.739 Y149.660
G1 F1800 X120.338 Y156.259 E57.00621
G0 F9000 X136.743 Y156.259
G1 F1800 X114.223 Y133.740 E58.59508
G0 F9000 X114.789 Y133.740
G1 F1800 X137.308 Y156.259 E60.18392
G0 F9000 X137.874 Y156.259
G1 F1800 X115.355 Y133.740 E61.77276
G0 F9000 X115.920 Y133.740
G1 F1800 X138.440 Y156.259 E63.36163
G0 F9000 X139.005 Y156.259
G1 F1800 X116.486 Y133.740 E64.95047
G0 F9000 X117.052 Y133.740
G1 F1800 X139.571 Y156.259 E66.53931
G0 F9000 X140.137 Y156.259
G1 F1800 X117.618 Y133.740 E68.12814
G0 F9000 X118.183 Y133.740
G1 F1800 X140.702 Y156.259 E69.71698
G0 F9000 X141.268 Y156.259
G1 F1800 X118.749 Y133.740 E71.30582
G0 F9000 X119.315 Y133.740
G1 F1800 X141.834 Y156.259 E72.89465
G0 F9000 X142.399 Y156.259
G1 F1800 X119.880 Y133.740 E74.48349
G0 F9000 X120.446 Y133.740
G1 F1800 X142.965 Y156.259 E76.07233
G0 F9000 X143.531 Y156.259
G1 F1800 X121.012 Y133.740 E77.66116
G0 F9000 X121.577 Y133.740
G1 F1800 X144.097 Y156.259 E79.25004
G0 F9000 X144.662 Y156.259
G1 F1800 X122.143 Y133.740 E80.83887
G0 F9000 X122.709 Y133.740
G1 F1800 X145.228 Y156.259 E82.42771
G0 F9000 X145.794 Y156.259
G1 F1800 X123.274 Y133.740 E84.01658
G0 F9000 X123.840 Y133.740
G1 F1800 X146.359 Y156.259 E85.60542
G0 F9000 X146.925 Y156.259
G1 F1800 X124.406 Y133.740 E87.19426
G0 F9000 X124.971 Y133.740
G1 F1800 X147.491 Y156.259 E88.78313
G0 F9000 X148.056 Y156.259
G1 F1800 X125.537 Y133.740 E90.37197
G0 F9000 X126.103 Y133.740
G1 F1800 X148.622 Y156.259 E91.96080
G0 F9000 X149.188 Y156.259
G1 F1800 X126.668 Y133.740 E93.54968
G0 F9000 X127.234 Y133.740
G1 F1800 X149.753 Y156.259 E95.13851
G0 F9000 X150.319 Y156.259
G1 F1800 X127.800 Y133.740 E96.72735
G0 F9000 X128.366 Y133.740
G1 F1800 X150.885 Y156.259 E98.31619
G0 F9000 X151.450 Y156.259
G1 F1800 X128.931 Y133.740 E99.90502
G0 F9000 X129.497 Y133.740
G1 F1800 X152.016 Y156.259 E101.49386
G0 F9000 X152.582 Y156.259
G1 F1800 X130.063 Y133.740 E103.08270
G0 F9000 X130.628 Y133.740
G1 F1800 X153.148 Y156.259 E104.67157
G0 F9000 X153.713 Y156.259
G1 F1800 X131.194 Y133.740 E106.26041
G0 F9000 X131.760 Y133.740
G1 F1800 X154.279 Y156.259 E107.84925
G0 F9000 X154.845 Y156.259
G1 F1800 X132.325 Y133.740 E109.43812
G0 F9000 X132.891 Y133.740
G1 F1800 X155.410 Y156.259 E111.02696
G0 F9000 X155.976 Y156.259
G1 F1800 X133.457 Y133.740 E112.61579
G0 F9000 X134.022 Y133.740
G1 F1800 X156.542 Y156.259 E114.20466
G0 F9000 X157.107 Y156.259
G1 F1800 X134.588 Y133.740 E115.79350
G0 F9000 X135.154 Y133.740
G1 F1800 X157.673 Y156.259 E117.38234
G0 F9000 X158.239 Y156.259
G1 F1800 X135.719 Y133.740 E118.97121
G0 F9000 X136.285 Y133.740
G1 F1800 X158.804 Y156.259 E120.56005
G0 F9000 X159.370 Y156.259
G1 F1800 X136.851 Y133.740 E122.14889
G0 F9000 X137.417 Y133.740
G1 F1800 X159.936 Y156.259 E123.73772
G0 F9000 X160.501 Y156.259
G1 F1800 X137.982 Y133.740 E125.32656
G0 F9000 X138.548 Y133.740
G1 F1800 X161.067 Y156.259 E126.91540
G0 F9000 X161.633 Y156.259
G1 F1800 X139.114 Y133.740 E128.50423
G0 F9000 X139.679 Y133.740
G1 F1800 X162.198 Y156.259 E130.09307
G0 F9000 X162.764 Y156.259
G1 F1800 X140.245 Y133.740 E131.68191
G0 F9000 X140.811 Y133.740
G1 F1800 X163.330 Y156.259 E133.27074
G0 F9000 X163.896 Y156.259
G1 F1800 X141.376 Y133.740 E134.85962
G0 F9000 X141.942 Y133.740
G1 F1800 X164.461 Y156.259 E136.44845
G0 F9000 X165.027 Y156.259
G1 F1800 X142.508 Y133.740 E138.03729
G0 F9000 X143.073 Y133.740
G1 F1800 X165.593 Y156.259 E139.62616
G0 F9000 X166.158 Y156.259
G1 F1800 X143.639 Y133.740 E141.21500
G0 F9000 X144.205 Y133.740
G1 F1800 X166.724 Y156.259 E142.80384
G0 F9000 X167.290 Y156.259
G1 F1800 X144.770 Y133.740 E144.39271
G0 F9000 X145.336 Y133.740
G1 F1800 X167.855 Y156.259 E145.98155
G0 F9000 X168.421 Y156.259
G1 F1800 X145.902 Y133.740 E147.57038
G0 F9000 X146.467 Y133.740
G1 F1800 X168.987 Y156.259 E149.15926
G0 F9000 X169.552 Y156.259
G1 F1800 X147.033 Y133.740 E150.74809
G0 F9000 X147.599 Y133.740
G1 F1800 X170.118 Y156.259 E152.33693
G0 F9000 X170.684 Y156.259
G1 F1800 X148.165 Y133.740 E153.92577
G0 F9000 X148.730 Y133.740
G1 F1800 X171.249 Y156.259 E155.51460
G0 F9000 X171.815 Y156.259
G1 F1800 X149.296 Y133.740 E157.10344
G0 F9000 X149.862 Y133.740
G1 F1800 X172.381 Y156.259 E158.69228
G0 F9000 X172.947 Y156.259
G1 F1800 X150.427 Y133.740 E160.28115
G0 F9000 X150.993 Y133.740
G1 F1800 X173.512 Y156.259 E161.86999
G0 F9000 X174.078 Y156.259
G1 F1800 X151.559 Y133.740 E163.45883
G0 F9000 X152.124 Y133.740
G1 F1800 X174.644 Y156.259 E165.04770
G0 F9000 X175.209 Y156.259
G1 F1800 X152.690 Y133.740 E166.63653
G0 F9000 X153.256 Y133.740
G1 F1800 X175.775 Y156.259 E168.22537
G0 F9000 X176.259 Y156.177
G1 F1800 X153.821 Y133.740 E169.80846
G0 F9000 X154.387 Y133.740
G1 F1800 X176.259 Y155.612 E171.35165
G0 F9000 X176.259 Y155.046
G1 F1800 X154.953 Y133.740 E172.85490
G0 F9000 X155.518 Y133.740
G1 F1800 X176.259 Y154.480 E174.31825
G0 F9000 X176.259 Y153.915
G1 F1800 X156.084 Y133.740 E175.74171
G0 F9000 X156.650 Y133.740
G1 F1800 X176.259 Y153.349 E177.12523
G0 F9000 X176.259 Y152.783
G1 F1800 X157.216 Y133.740 E178.46882
G0 F9000 X157.781 Y133.740
G1 F1800 X176.259 Y152.218 E179.77254
G0 F9000 X176.259 Y151.652
G1 F1800 X158.347 Y133.740 E181.03633
G0 F9000 X158.913 Y133.740
G1 F1800 X176.259 Y151.086 E182.26018
G0 F9000 X176.259 Y150.521
G1 F1800 X159.478 Y133.740 E183.44417
G0 F9000 X160.044 Y133.740
G1 F1800 X176.259 Y149.955 E184.58823
G0 F9000 X176.259 Y149.389
G1 F1800 X160.610 Y133.740 E185.69235
G0 F9000 X161.175 Y133.740
G1 F1800 X176.259 Y148.824 E186.75661
G0 F9000 X176.259 Y148.258
G1 F1800 X161.741 Y133.740 E187.78093
G0 F9000 X162.307 Y133.740
G1 F1800 X176.259 Y147.692 E188.76532
G0 F9000 X176.259 Y147.127
G1 F1800 X162.872 Y133.740 E189.70984
G0 F9000 X163.438 Y133.740
G1 F1800 X176.259 Y146.561 E190.61444
G0 F9000 X176.259 Y145.995
G1 F1800 X164.004 Y133.740 E191.47909
G0 F9000 X164.569 Y133.740
G1 F1800 X176.259 Y145.429 E192.30385
G0 F9000 X176.259 Y144.864
G1 F1800 X165.135 Y133.740 E193.08871
G0 F9000 X165.701 Y133.740
G1 F1800 X176.259 Y144.298 E193.83363
G0 F9000 X176.259 Y143.732
G1 F1800 X166.266 Y133.740 E194.53866
G0 F9000 X166.832 Y133.740
G1 F1800 X176.259 Y143.167 E195.20378
G0 F9000 X176.259 Y142.601
G1 F1800 X167.398 Y133.740 E195.82897
G0 F9000 X167.964 Y133.740
G1 F1800 X176.259 Y142.035 E196.41423
G0 F9000 X176.259 Y141.470
G1 F1800 X168.529 Y133.740 E196.95962
G0 F9000 X169.095 Y133.740
G1 F1800 X176.259 Y140.904 E197.46508
G0 F9000 X176.259 Y140.338
G1 F1800 X169.661 Y133.740 E197.93061
G0 F9000 X170.226 Y133.740
G1 F1800 X176.259 Y139.773 E198.35627
G0 F9000 X176.259 Y139.207
G1 F1800 X170.792 Y133.740 E198.74199
G0 F9000 X171.358 Y133.740
G1 F1800 X176.259 Y138.641 E199.08779
G0 F9000 X176.259 Y138.076
G1 F1800 X171.923 Y133.740 E199.39371
G0 F9000 X172.489 Y133.740
G1 F1800 X176.259 Y137.510 E199.65971
G0 F9000 X176.259 Y136.944
G1 F1800 X173.055 Y133.740 E199.88577
G0 F9000 X173.620 Y133.740
G1 F1800 X176.259 Y136.378 E200.07193
G0 F9000 X176.259 Y135.813
G1 F1800 X174.186 Y133.740 E200.21819
G0 F9000 X174.752 Y133.740
G1 F1800 X176.259 Y135.247 E200.32452
G0 F9000 X176.259 Y134.681
G1 F1800 X175.317 Y133.740 E200.39094
G0 F9000 X175.883 Y133.740
G1 F1800 X176.259 Y134.116 E200.41747
G0 F9000 X119.772 Y156.259
G1 F1800 X113.739 Y150.226 E200.84313
G0 F9000 X113.739 Y150.791
G1 F1800 X119.206 Y156.259 E201.22890
G0 F9000 X118.641 Y156.259
G1 F1800 X113.739 Y151.357 E201.57476
G0 F9000 X113.739 Y151.923
G1 F1800 X118.075 Y156.259 E201.88069
G0 F9000 X117.509 Y156.259
G1 F1800 X113.739 Y152.488 E202.14672
G0 F9000 X113.739 Y153.054
G1 F1800 X116.944 Y156.259 E202.37285
G0 F9000 X116.378 Y156.259
G1 F1800 X113.739 Y153.620 E202.55904
G0 F9000 X113.739 Y154.186
G1 F1800 X115.812 Y156.259 E202.70530
G0 F9000 X115.247 Y156.259
G1 F1800 X113.739 Y154.751 E202.81170
G0 F9000 X113.739 Y155.317
G1 F1800 X114.681 Y156.259 E202.87816
G0 F9000 X114.115 Y156.259
G1 F1800 X113.739 Y155.883 E202.90469
;LAYER:1
M106 S63
G0 F9000 X113.600 Y156.400 Z0.500
;TYPE:WALL-INNER
G1 F2220 X113.600 Y133.600 E203.66302
G1 X176.400 Y133.600 E205.75176
G1 X176.400 Y156.400 E206.51009
G1 X113.600 Y156.400 E208.59883
G0 F9000 X131.375 Y148.075
G1 F2220 X132.393 Y148.235 E208.63310
G1 X132.681 Y147.328 E208.66475
G1 X132.844 Y146.601 E208.68953
G1 X132.956 Y145.788 E208.71683
G1 X132.992 Y145.005 E208.74290
G1 X132.959 Y144.276 E208.76717
G1 X132.860 Y143.485 E208.79369
G1 X132.682 Y142.674 E208.82130
G1 X132.395 Y141.767 E208.85294
G1 X131.380 Y141.922 E208.88709
G1 X131.377 Y142.682 E208.91237
G1 X131.378 Y147.313 E209.06640
G1 X131.375 Y148.075 E209.09174
G0 F9000 X136.027 Y148.076
G1 F2220 X137.043 Y148.234 E209.12594
G1 X137.331 Y147.328 E209.15756
G1 X137.494 Y146.601 E209.18234
G1 X137.606 Y145.788 E209.20964
G1 X137.643 Y145.000 E209.23587
G1 X137.610 Y144.281 E209.25981
G1 X137.510 Y143.485 E209.28650
G1 X137.332 Y142.674 E209.31411
G1 X137.046 Y141.771 E209.34562
G1 X136.038 Y141.917 E209.37949
G1 X136.027 Y142.487 E209.39846
G1 X136.027 Y148.076 E209.58435
G0 F9000 X140.676 Y148.075
G1 F2220 X141.693 Y148.234 E209.61858
G1 X141.981 Y147.328 E209.65020
G1 X142.144 Y146.601 E209.67498
G1 X142.256 Y145.788 E209.70228
G1 X142.289 Y145.084 E209.72572
G1 X142.291 Y144.997 E209.72861
G1 X142.257 Y144.223 E209.75438
G1 X142.160 Y143.483 E209.77921
G1 X141.982 Y142.674 E209.80676
G1 X141.695 Y141.768 E209.83837
G1 X140.682 Y141.921 E209.87244
G1 X140.677 Y142.567 E209.89393
G1 X140.678 Y147.142 E210.04609
G1 X140.676 Y148.075 E210.07712
G0 F9000 X145.325 Y148.075
G1 F2220 X146.343 Y148.235 E210.11140
G1 X146.631 Y147.328 E210.14305
G1 X146.794 Y146.601 E210.16783
G1 X146.906 Y145.788 E210.19513
G1 X146.942 Y145.005 E210.22120
G1 X146.909 Y144.276 E210.24547
G1 X146.810 Y143.485 E210.27198
G1 X146.632 Y142.674 E210.29960
G1 X146.345 Y141.767 E210.33124
G1 X145.330 Y141.922 E210.36539
G1 X145.327 Y142.682 E210.39067
G1 X145.328 Y147.313 E210.54469
G1 X145.325 Y148.075 E210.57004
G0 F9000 X149.977 Y148.076
G1 F2220 X150.993 Y148.234 E210.60424
G1 X151.281 Y147.328 E210.63586
G1 X151.444 Y146.601 E210.66064
G1 X151.550 Y145.839 E210.68623
G1 X151.593 Y145.002 E210.71410
G1 X151.560 Y144.281 E210.73811
G1 X151.455 Y143.446 E210.76610
G1 X151.282 Y142.673 E210.79244
G1 X150.996 Y141.771 E210.82392
G1 X149.988 Y141.917 E210.85779
G1 X149.977 Y142.487 E210.87675
G1 X149.977 Y148.076 E211.06265
G0 F9000 X154.625 Y148.075
G1 F2220 X155.643 Y148.235 E211.09692
G1 X155.931 Y147.328 E211.12857
G1 X156.094 Y146.601 E211.15335
G1 X156.206 Y145.788 E211.18065
G1 X156.242 Y145.005 E211.20672
G1 X156.209 Y144.276 E211.23099
G1 X156.110 Y143.485 E211.25750
G1 X155.932 Y142.674 E211.28512
G1 X155.645 Y141.767 E211.31676
G1 X154.630 Y141.922 E211.35091
G1 X154.627 Y142.682 E211.37619
G1 X154.628 Y147.313 E211.53022
G1 X154.625 Y148.075 E211.55556
G0 F9000 X159.277 Y148.076
G1 F2220 X160.293 Y148.234 E211.58976
G1 X160.581 Y147.328 E211.62138
G1 X160.744 Y146.601 E211.64616
G1 X160.856 Y145.788 E211.67345
G1 X160.893 Y145.000 E211.69969
G1 X160.860 Y144.281 E211.72363
G1 X160.760 Y143.485 E211.75032
G1 X160.582 Y142.674 E211.77793
G1 X160.296 Y141.771 E211.80944
G1 X159.288 Y141.917 E211.84331
G1 X159.277 Y142.487 E211.86227
G1 X159.277 Y148.076 E212.04816
G0 F9000 X163.926 Y148.075
G1 F2220 X164.943 Y148.234 E212.08240
G1 X165.231 Y147.328 E212.11402
G1 X165.394 Y146.601 E212.13880
G1 X165.506 Y145.788 E212.16610
G1 X165.539 Y145.084 E212.18954
G1 X165.541 Y144.997 E212.19243
G1 X165.507 Y144.223 E212.21820
G1 X165.410 Y143.483 E212.24302
G1 X165.232 Y142.674 E212.27057
G1 X164.945 Y141.768 E212.30218
G1 X163.932 Y141.921 E212.33626
G1 X163.927 Y142.567 E212.35774
G1 X163.928 Y147.142 E212.50991
G1 X163.926 Y148.075 E212.54094
G0 F9000 X168.575 Y148.075
G1 F2220 X169.593 Y148.235 E212.57522
G1 X169.881 Y147.328 E212.60687
G1 X170.044 Y146.601 E212.63165
G1 X170.156 Y145.788 E212.65894
G1 X170.192 Y145.005 E212.68501
G1 X170.159 Y144.276 E212.70929
G1 X170.060 Y143.485 E212.73580
G1 X169.882 Y142.674 E212.76342
G1 X169.595 Y141.767 E212.79506
G1 X168.580 Y141.922 E212.82921
G1 X168.577 Y142.682 E212.85448
G1 X168.578 Y147.313 E213.00851
G1 X168.575 Y148.075 E213.03386
G0 F9000 X173.227 Y148.077
G1 F2220 X174.244 Y148.233 E213.06808
G1 X174.530 Y147.329 E213.09961
G1 X174.695 Y146.602 E213.12441
G1 X174.800 Y145.838 E213.15006
G1 X174.843 Y145.002 E213.17790
G1 X174.810 Y144.275 E213.20211
G1 X174.704 Y143.441 E213.23007
G1 X174.531 Y142.671 E213.25632
G1 X174.246 Y141.771 E213.28772
G1 X173.238 Y141.917 E213.32159
G1 X173.227 Y142.487 E213.34055
G1 X173.227 Y148.077 E213.52648
G0 F9000 X173.627 Y147.734
;TYPE:WALL-OUTER
G1 F1980 X173.966 Y147.786 E213.53789
G1 X174.143 Y147.224 E213.55748
G1 X174.301 Y146.530 E213.58116
G1 X174.401 Y145.801 E213.60563
G1 X174.442 Y145.001 E213.63227
G1 X174.411 Y144.310 E213.65528
G1 X174.309 Y143.510 E213.68210
G1 X174.144 Y142.775 E213.70716
G1 X173.967 Y142.216 E213.72666
G1 X173.631 Y142.264 E213.73795
G1 X173.627 Y147.734 E213.91988
G0 F9000 X173.581 Y148.029
G0 X169.941 Y146.596
G0 X169.650 Y146.530
G1 F1980 X169.757 Y145.751 E213.94603
G1 X169.791 Y145.005 E213.97087
G1 X169.760 Y144.310 E213.99401
G1 X169.665 Y143.553 E214.01939
G1 X169.495 Y142.777 E214.04581
G1 X169.317 Y142.214 E214.06545
G1 X168.979 Y142.266 E214.07682
G1 X168.976 Y147.733 E214.25865
