;Generated with Cura_SteamEngine 15.05
; Default start code
G28 ; Home extruder
G1 Z15 F100
M107 ; Turn off fan
G90 ; Absolute positioning
M82 ; Extruder in absolute mode
M190 S50
; Activate all used extruder
M104 T0 S210
G92 E0 ; Reset extruder position
; Wait for all used extruders to reach temperature
M109 T0 S210
;Layer count: 82
;LAYER:0
M107
G0 F9000 X131.415 Y105.163 Z0.300
;TYPE:SKIRT
G1 F1800 X132.114 Y104.501 E0.04803
G1 X132.926 Y103.997 E0.09571
G1 X133.749 Y103.698 E0.13940
G1 X134.177 Y103.607 E0.16123
G1 X134.560 Y103.552 E0.18053
G1 X135.234 Y103.530 E0.21417
G1 X136.191 Y103.671 E0.26243
G1 X137.112 Y104.016 E0.31150
G1 X137.924 Y104.530 E0.35945
G1 X138.588 Y105.170 E0.40546
G1 X138.980 Y105.707 E0.43863
G1 X139.192 Y106.077 E0.45990
G1 X139.425 Y106.592 E0.48810
G1 X139.635 Y107.251 E0.52261
G1 X139.678 Y107.384 E0.52958
G1 X144.401 Y122.127 E1.30193
G1 X144.402 Y122.127 E1.30198
G1 X144.561 Y122.619 E1.32778
G1 X144.726 Y123.138 E1.35495
G1 X144.881 Y123.618 E1.38012
G1 X145.414 Y125.282 E1.46729
G1 X145.592 Y125.998 E1.50410
G1 X145.722 Y126.739 E1.54163
G1 X145.803 Y127.486 E1.57912
G1 X145.824 Y128.057 E1.60762
G1 X145.835 Y128.183 E1.61393
G1 X145.806 Y129.002 E1.65482
G1 X145.729 Y129.750 E1.69233
G1 X145.599 Y130.497 E1.73016
G1 X145.415 Y131.233 E1.76801
G1 X145.184 Y131.948 E1.80550
G1 X144.903 Y132.650 E1.84322
G1 X144.570 Y133.333 E1.88113
G1 X144.194 Y133.986 E1.91872
G1 X143.774 Y134.612 E1.95633
G1 X143.307 Y135.211 E1.99423
G1 X142.802 Y135.773 E2.03192
G1 X142.251 Y136.308 E2.07024
G1 X141.669 Y136.797 E2.10816
G1 X141.057 Y137.241 E2.14588
G1 X140.415 Y137.642 E2.18365
G1 X139.746 Y137.998 E2.22146
G1 X139.058 Y138.303 E2.25900
G1 X139.000 Y138.324 E2.26208
G1 X139.000 Y144.961 E2.59320
G1 X130.999 Y144.961 E2.99237
G1 X130.999 Y138.324 E3.32349
G1 X130.941 Y138.303 E3.32657
G1 X130.253 Y137.998 E3.36412
G1 X129.584 Y137.642 E3.40193
G1 X128.942 Y137.241 E3.43969
G1 X128.330 Y136.797 E3.47741
G1 X127.750 Y136.309 E3.51523
G1 X127.208 Y135.786 E3.55280
G1 X126.712 Y135.235 E3.58979
G1 X126.247 Y134.641 E3.62743
G1 X125.824 Y134.016 E3.66508
G1 X125.444 Y133.361 E3.70286
G1 X125.111 Y132.680 E3.74068
G1 X124.829 Y131.984 E3.77814
G1 X124.593 Y131.266 E3.81585
G1 X124.407 Y130.527 E3.85387
G1 X124.277 Y129.783 E3.89155
G1 X124.196 Y129.033 E3.92918
G1 X124.176 Y128.460 E3.95779
G1 X124.166 Y128.342 E3.96370
G1 X124.192 Y127.523 E4.00458
G1 X124.270 Y126.772 E4.04225
G1 X124.400 Y126.025 E4.08007
G1 X124.582 Y125.294 E4.11766
G1 X125.099 Y123.677 E4.20235
G1 X125.414 Y122.698 E4.25366
G1 X125.413 Y122.698 E4.25371
G1 X130.522 Y106.758 E5.08881
G1 X130.754 Y106.177 E5.12002
G1 X130.873 Y105.962 E5.13228
G1 X131.016 Y105.713 E5.14661
G1 X131.415 Y105.163 E5.18051
G0 F9000 X111.800 Y150.061
G1 F1800 X178.200 Y150.061 E8.49322
G1 X178.200 Y186.461 E10.30922
G1 X111.800 Y186.461 E13.62193
G1 X111.800 Y150.061 E15.43793
G1 F2400 E11.43793
G0 F9000 X129.943 Y133.144
;TYPE:WALL-INNER
G1 F2400 E15.43793
G1 F1800 X129.320 Y132.402 E15.48627
G1 X129.043 Y131.993 E15.51091
G1 X128.797 Y131.569 E15.53537
G1 X128.583 Y131.130 E15.55973
G1 X128.397 Y130.672 E15.58440
G1 X128.245 Y130.207 E15.60880
G1 X128.126 Y129.732 E15.63323
G1 X127.989 Y128.760 E15.68221
G1 X127.971 Y128.258 E15.70727
G1 X127.986 Y127.780 E15.73113
G1 X128.037 Y127.289 E15.75575
G1 X128.121 Y126.808 E15.78011
G1 X128.236 Y126.346 E15.80387
G1 X134.103 Y108.036 E16.76311
G1 X134.214 Y107.776 E16.77721
G1 X134.283 Y107.681 E16.78307
G1 X134.449 Y107.524 E16.79447
G1 X134.594 Y107.434 E16.80298
G1 X134.838 Y107.351 E16.81584
G1 X135.019 Y107.340 E16.82489
G1 X135.236 Y107.372 E16.83583
G1 X135.415 Y107.439 E16.84537
G1 X135.562 Y107.532 E16.85404
G1 X135.716 Y107.680 E16.86470
G1 X135.803 Y107.805 E16.87230
G1 X135.871 Y107.955 E16.88051
G1 X136.061 Y108.550 E16.91168
G1 X140.786 Y123.295 E17.68415
G1 X140.942 Y123.779 E17.70952
G1 X141.109 Y124.300 E17.73682
G1 X141.757 Y126.324 E17.84285
G1 X141.872 Y126.784 E17.86650
G1 X142.010 Y127.760 E17.91568
G1 X142.029 Y128.261 E17.94069
G1 X142.013 Y128.741 E17.96465
G1 X141.962 Y129.231 E17.98923
G1 X141.878 Y129.712 E18.01359
G1 X141.762 Y130.181 E18.03770
G1 X141.427 Y131.107 E18.08682
G1 X141.212 Y131.549 E18.11135
G1 X140.965 Y131.978 E18.13604
G1 X140.695 Y132.381 E18.16024
G1 X140.070 Y133.129 E18.20887
G1 X139.696 Y133.492 E18.23488
G1 X139.329 Y133.800 E18.25878
G1 X138.934 Y134.087 E18.28314
G1 X138.081 Y134.579 E18.33227
G1 X137.167 Y134.948 E18.38144
G1 X136.216 Y135.184 E18.43033
G1 X135.200 Y135.328 E18.48152
G1 X135.200 Y141.161 E18.77253
G1 X134.799 Y141.161 E18.79254
G1 X134.799 Y135.328 E19.08355
G1 X133.783 Y135.184 E19.13474
G1 X132.832 Y134.948 E19.18363
G1 X132.358 Y134.775 E19.20880
G1 X131.488 Y134.351 E19.25709
G1 X131.065 Y134.087 E19.28196
G1 X130.670 Y133.800 E19.30632
G1 X130.304 Y133.492 E19.33019
G1 X129.943 Y133.144 E19.35520
G0 F9000 X132.849 Y130.619
G1 F1800 X133.059 Y130.795 E19.36887
G1 X133.422 Y131.035 E19.39058
G1 X133.814 Y131.226 E19.41234
G1 X134.435 Y131.403 E19.44455
G1 X134.888 Y131.451 E19.46728
G1 X135.353 Y131.434 E19.49049
G1 X135.802 Y131.351 E19.51327
G1 X136.391 Y131.135 E19.54457
G1 X136.790 Y130.902 E19.56763
G1 X136.973 Y130.770 E19.57888
G1 X137.296 Y130.479 E19.60057
G1 X137.583 Y130.137 E19.62285
G1 X137.823 Y129.751 E19.64552
G1 X138.055 Y129.182 E19.67618
G1 X138.123 Y128.917 E19.68983
G1 X138.183 Y128.494 E19.71114
G1 X138.191 Y128.250 E19.72332
G1 X138.160 Y127.807 E19.74548
G1 X138.010 Y127.199 E19.77672
G1 X137.819 Y126.764 E19.80042
G1 X137.577 Y126.376 E19.82324
G1 X137.150 Y125.903 E19.85503
G1 X136.942 Y125.728 E19.86859
G1 X136.595 Y125.496 E19.88942
G1 X136.185 Y125.297 E19.91215
G1 X135.564 Y125.119 E19.94438
G1 X135.111 Y125.071 E19.96711
G1 X134.646 Y125.088 E19.99032
G1 X134.197 Y125.171 E20.01310
G1 X133.608 Y125.387 E20.04440
G1 X133.209 Y125.620 E20.06745
G1 X133.026 Y125.752 E20.07871
G1 X132.703 Y126.043 E20.10040
G1 X132.416 Y126.385 E20.12268
G1 X132.176 Y126.771 E20.14535
G1 X131.944 Y127.340 E20.17601
G1 X131.876 Y127.605 E20.18966
G1 X131.816 Y128.028 E20.21097
G1 X131.808 Y128.272 E20.22315
G1 X131.839 Y128.715 E20.24531
G1 X131.989 Y129.323 E20.27655
G1 X132.180 Y129.758 E20.30025
G1 X132.422 Y130.146 E20.32307
G1 X132.849 Y130.619 E20.35486
G0 F9000 X133.298 Y130.474
;TYPE:WALL-OUTER
G1 F1800 X133.621 Y130.687 E20.37416
G1 X133.957 Y130.851 E20.39281
G1 X134.512 Y131.009 E20.42160
G1 X134.902 Y131.050 E20.44117
G1 X135.309 Y131.035 E20.46149
G1 X135.696 Y130.964 E20.48112
G1 X136.220 Y130.772 E20.50896
G1 X136.721 Y130.459 E20.53843
G1 X137.007 Y130.200 E20.55768
G1 X137.258 Y129.902 E20.57712
G1 X137.466 Y129.568 E20.59675
G1 X137.674 Y129.056 E20.62432
G1 X137.730 Y128.839 E20.63550
G1 X137.784 Y128.459 E20.65465
G1 X137.790 Y128.257 E20.66473
G1 X137.763 Y127.869 E20.68414
G1 X137.630 Y127.328 E20.71193
G1 X137.464 Y126.951 E20.73248
G1 X137.256 Y126.617 E20.75211
G1 X136.872 Y126.192 E20.78069
G1 X136.395 Y125.843 E20.81018
G1 X136.042 Y125.672 E20.82974
G1 X135.487 Y125.513 E20.85855
G1 X135.097 Y125.472 E20.87811
G1 X134.690 Y125.487 E20.89843
G1 X134.303 Y125.558 E20.91806
G1 X133.779 Y125.750 E20.94590
G1 X133.278 Y126.063 E20.97537
G1 X132.992 Y126.322 E20.99462
G1 X132.741 Y126.620 E21.01406
G1 X132.533 Y126.954 E21.03369
G1 X132.325 Y127.466 E21.06126
G1 X132.269 Y127.683 E21.07245
G1 X132.215 Y128.063 E21.09159
G1 X132.209 Y128.265 E21.10168
G1 X132.236 Y128.653 E21.12108
G1 X132.369 Y129.194 E21.14888
G1 X132.535 Y129.571 E21.16943
G1 X132.743 Y129.905 E21.18906
G1 X133.127 Y130.330 E21.21763
G1 X133.298 Y130.474 E21.22879
G0 F9000 X133.107 Y130.704
G0 X130.598 Y133.871
G0 X130.420 Y134.112
G1 F1800 X130.028 Y133.782 E21.25435
G1 X129.658 Y133.424 E21.28004
G1 X129.312 Y133.041 E21.30579
G1 X129.001 Y132.644 E21.33095
G1 X128.702 Y132.202 E21.35757
G1 X128.449 Y131.766 E21.38272
G1 X128.215 Y131.287 E21.40932
G1 X128.024 Y130.816 E21.43467
G1 X127.862 Y130.324 E21.46051
G1 X127.735 Y129.817 E21.48659
G1 X127.644 Y129.300 E21.51278
G1 X127.590 Y128.791 E21.53832
G1 X127.571 Y128.261 E21.56478
G1 X127.587 Y127.748 E21.59038
G1 X127.641 Y127.232 E21.61627
G1 X127.730 Y126.721 E21.64214
G1 X127.853 Y126.231 E21.66735
G1 X133.726 Y107.902 E22.62758
G1 X133.831 Y107.638 E22.64176
G1 X133.981 Y107.416 E22.65512
G1 X134.202 Y107.206 E22.67033
G1 X134.418 Y107.072 E22.68301
G1 X134.774 Y106.956 E22.70169
G1 X135.042 Y106.939 E22.71509
G1 X135.339 Y106.982 E22.73006
G1 X135.589 Y107.076 E22.74339
G1 X135.813 Y107.218 E22.75662
G1 X136.018 Y107.415 E22.77080
G1 X136.119 Y107.553 E22.77934
G1 X136.241 Y107.801 E22.79313
G1 X142.143 Y126.219 E23.75803
G1 X142.353 Y127.208 E23.80847
G1 X142.409 Y127.725 E23.83441
G1 X142.429 Y128.261 E23.86117
G1 X142.412 Y128.767 E23.88643
G1 X142.358 Y129.286 E23.91247
G1 X142.270 Y129.794 E23.93819
G1 X142.145 Y130.297 E23.96404
G1 X141.987 Y130.785 E23.98964
G1 X141.791 Y131.275 E24.01597
G1 X141.565 Y131.739 E24.04171
G1 X141.305 Y132.189 E24.06764
G1 X141.021 Y132.613 E24.09310
G1 X140.703 Y133.022 E24.11895
G1 X140.349 Y133.416 E24.14538
G1 X139.971 Y133.783 E24.17166
G1 X139.579 Y134.112 E24.19719
G1 X139.153 Y134.421 E24.22345
G1 X138.716 Y134.695 E24.24918
G1 X138.253 Y134.941 E24.27534
G1 X137.785 Y135.149 E24.30089
G1 X137.288 Y135.330 E24.32728
G1 X136.803 Y135.468 E24.35243
G1 X136.282 Y135.579 E24.37901
G1 X135.600 Y135.675 E24.41337
G1 X135.600 Y141.561 E24.70702
G1 X134.399 Y141.561 E24.76694
G1 X134.399 Y135.675 E25.06060
G1 X133.717 Y135.579 E25.09496
G1 X133.196 Y135.468 E25.12153
G1 X132.711 Y135.330 E25.14669
G1 X132.214 Y135.149 E25.17308
G1 X131.746 Y134.941 E25.19863
G1 X131.283 Y134.695 E25.22479
G1 X130.846 Y134.421 E25.25052
G1 X130.420 Y134.112 E25.27678
G0 F9000 X131.801 Y134.346
;TYPE:SKIN
G1 F1800 X128.887 Y131.432 E25.48237
G0 F9000 X128.472 Y130.452
G1 F1800 X132.810 Y134.790 E25.78844
G0 F9000 X133.572 Y134.986
G1 F1800 X128.258 Y129.672 E26.16338
G0 F9000 X128.165 Y129.014
G1 F1800 X134.260 Y135.109 E26.59341
G0 F9000 X134.919 Y135.202
G1 F1800 X128.115 Y128.398 E27.07347
G0 F9000 X128.122 Y127.839
G1 F1800 X135.434 Y135.152 E27.58941
G0 F9000 X135.059 Y135.342
G1 F1800 X134.939 Y135.504 E27.59785
G1 X134.999 Y136.130 E27.60633
G1 X134.999 Y136.696 E27.61473
G1 X134.999 Y137.261 E27.62311
G1 X134.999 Y137.827 E27.63158
G1 X134.999 Y138.393 E27.63998
G1 X134.999 Y138.958 E27.64837
G1 X134.999 Y139.524 E27.65684
G1 X135.059 Y139.867 E27.67421
G0 F9000 X135.249 Y135.371
G0 X135.930 Y135.082
G1 F1800 X128.173 Y127.324 E28.22155
G0 F9000 X128.256 Y126.842
G1 F1800 X136.405 Y134.991 E28.79650
G0 F9000 X136.859 Y134.879
G1 F1800 X128.368 Y126.388 E29.39559
G0 F9000 X128.504 Y125.959
G1 F1800 X131.835 Y129.290 E29.63061
G0 F9000 X131.688 Y128.577
G1 F1800 X128.641 Y125.530 E29.84559
G0 F9000 X128.779 Y125.102
G1 F1800 X131.677 Y128.000 E30.05006
G0 F9000 X131.755 Y127.512
G1 F1800 X128.916 Y124.674 E30.25033
G0 F9000 X129.054 Y124.245
G1 F1800 X131.896 Y127.088 E30.45089
G0 F9000 X132.062 Y126.688
G1 F1800 X129.191 Y123.817 E30.65345
G0 F9000 X129.328 Y123.388
G1 F1800 X132.279 Y126.339 E30.86166
G0 F9000 X132.533 Y126.028
G1 F1800 X129.465 Y122.960 E31.07812
G0 F9000 X129.602 Y122.531
G1 F1800 X132.819 Y125.748 E31.30510
G0 F9000 X133.136 Y125.499
G1 F1800 X129.740 Y122.103 E31.54471
G0 F9000 X129.877 Y121.675
G1 F1800 X133.493 Y125.290 E31.79980
G0 F9000 X133.897 Y125.129
G1 F1800 X130.015 Y121.246 E32.07373
G0 F9000 X130.152 Y120.818
G1 F1800 X134.336 Y125.002 E32.36893
G0 F9000 X134.840 Y124.940
G1 F1800 X130.289 Y120.389 E32.69003
G0 F9000 X130.426 Y119.961
G1 F1800 X135.429 Y124.964 E33.04302
G0 F9000 X136.181 Y125.150
G1 F1800 X130.563 Y119.532 E33.43940
G0 F9000 X130.701 Y119.105
G1 F1800 X141.649 Y130.052 E34.21181
G0 F9000 X141.506 Y130.475
G1 F1800 X138.109 Y127.079 E34.45145
G0 F9000 X138.300 Y127.835
G1 F1800 X141.356 Y130.891 E34.66707
G0 F9000 X141.185 Y131.285
G1 F1800 X138.324 Y128.424 E34.86892
G0 F9000 X138.262 Y128.928
G1 F1800 X140.989 Y131.655 E35.06133
G0 F9000 X140.776 Y132.008
G1 F1800 X138.130 Y129.362 E35.24802
G0 F9000 X137.967 Y129.764
G1 F1800 X140.545 Y132.342 E35.42991
G0 F9000 X140.287 Y132.651
G1 F1800 X137.757 Y130.120 E35.60845
G0 F9000 X137.510 Y130.439
G1 F1800 X140.029 Y132.958 E35.78618
G0 F9000 X141.756 Y129.594
G1 F1800 X130.838 Y118.676 E36.55650
G0 F9000 X130.975 Y118.248
G1 F1800 X141.833 Y129.105 E37.32256
G0 F9000 X141.878 Y128.584
G1 F1800 X131.113 Y117.819 E38.08209
G0 F9000 X131.250 Y117.391
G1 F1800 X141.878 Y128.019 E38.83195
G0 F9000 X141.815 Y127.390
G1 F1800 X131.387 Y116.962 E39.56770
G0 F9000 X131.524 Y116.534
G1 F1800 X141.711 Y126.721 E40.28645
G0 F9000 X141.480 Y125.924
G1 F1800 X131.662 Y116.106 E40.97916
G0 F9000 X131.799 Y115.677
G1 F1800 X141.214 Y125.092 E41.64344
G0 F9000 X140.946 Y124.259
G1 F1800 X131.936 Y115.249 E42.27915
G0 F9000 X132.074 Y114.820
G1 F1800 X140.680 Y123.426 E42.88635
G0 F9000 X140.413 Y122.594
G1 F1800 X132.211 Y114.392 E43.46504
G0 F9000 X132.348 Y113.963
G1 F1800 X140.147 Y121.762 E44.01530
G0 F9000 X139.880 Y120.930
G1 F1800 X132.485 Y113.535 E44.53706
G0 F9000 X132.623 Y113.107
G1 F1800 X139.613 Y120.097 E45.03024
G0 F9000 X137.823 Y129.749
G0 X137.231 Y130.725
G1 F1800 X139.749 Y133.243 E45.20790
G0 F9000 X139.452 Y133.512
G1 F1800 X136.920 Y130.980 E45.38655
G0 F9000 X136.568 Y131.194
G1 F1800 X139.138 Y133.764 E45.56787
G0 F9000 X138.806 Y133.998
G1 F1800 X136.173 Y131.364 E45.75368
G0 F9000 X135.746 Y131.504
G1 F1800 X138.447 Y134.204 E45.94422
G0 F9000 X138.088 Y134.411
G1 F1800 X135.253 Y131.577 E46.14421
G0 F9000 X134.680 Y131.569
G1 F1800 X137.694 Y134.583 E46.35686
G0 F9000 X137.291 Y134.746
G1 F1800 X133.959 Y131.413 E46.59199
G0 F9000 X134.750 Y135.371
G0 X134.939 Y140.313
G1 F1800 X134.999 Y140.656 E46.60041
G1 X135.059 Y140.999 E46.61778
G0 F9000 X135.249 Y135.371
G0 X138.182 Y128.492
G0 X139.346 Y119.264
G1 F1800 X132.760 Y112.678 E47.08246
G0 F9000 X132.897 Y112.250
G1 F1800 X139.080 Y118.432 E47.51867
G0 F9000 X138.813 Y117.600
G1 F1800 X133.035 Y111.821 E47.92638
G0 F9000 X133.172 Y111.393
G1 F1800 X138.546 Y116.768 E48.30558
G0 F9000 X138.280 Y115.935
G1 F1800 X133.309 Y110.964 E48.65631
G0 F9000 X133.446 Y110.536
G1 F1800 X138.013 Y115.103 E48.97853
G0 F9000 X137.746 Y114.270
G1 F1800 X133.584 Y110.108 E49.27218
G0 F9000 X133.721 Y109.680
G1 F1800 X137.479 Y113.438 E49.53733
G0 F9000 X137.213 Y112.606
G1 F1800 X133.858 Y109.251 E49.77404
G0 F9000 X133.996 Y108.823
G1 F1800 X136.946 Y111.773 E49.98218
G0 F9000 X136.680 Y110.941
G1 F1800 X134.133 Y108.394 E50.16189
G0 F9000 X134.279 Y107.975
G1 F1800 X136.413 Y110.109 E50.31245
G0 F9000 X136.146 Y109.276
G1 F1800 X134.519 Y107.649 E50.42725
G0 F9000 X134.923 Y107.487
G1 F1800 X135.879 Y108.444 E50.49473
G1 F2400 E46.49473
G0 F9000 X115.600 Y153.861
;TYPE:WALL-INNER
G1 F2400 E50.49473
G1 F1800 X174.400 Y153.861 E53.42828
G1 X174.400 Y182.661 E54.86511
G1 X115.600 Y182.661 E57.79866
G1 X115.600 Y153.861 E59.23550
G0 F9000 X122.700 Y160.578
G1 F1800 X122.484 Y160.923 E59.25580
G1 X122.322 Y161.286 E59.27564
G1 X122.213 Y161.669 E59.29550
G1 X122.158 Y162.052 E59.31481
G1 X122.151 Y162.272 E59.32579
G1 X122.177 Y162.658 E59.34509
G1 X122.263 Y163.058 E59.36550
G1 X122.482 Y163.599 E59.39462
G1 X122.809 Y164.084 E59.42380
G1 X123.094 Y164.381 E59.44434
G1 X123.409 Y164.626 E59.46425
G1 X123.753 Y164.823 E59.48402
G1 X124.310 Y165.024 E59.51357
G1 X124.713 Y165.096 E59.53399
G1 X125.103 Y165.109 E59.55346
G1 X125.485 Y165.068 E59.57263
G1 X125.700 Y165.022 E59.58360
G1 X126.069 Y164.902 E59.60295
G1 X126.427 Y164.727 E59.62283
G1 X126.755 Y164.504 E59.64262
G1 X127.057 Y164.235 E59.66280
G1 X127.411 Y163.779 E59.69160
G1 X127.608 Y163.410 E59.71247
G1 X127.785 Y162.864 E59.74110
G1 X127.841 Y162.470 E59.76096
G1 X127.847 Y162.261 E59.77139
G1 X127.841 Y162.052 E59.78182
G1 X127.786 Y161.669 E59.80113
G1 X127.677 Y161.286 E59.82099
G1 X127.510 Y160.914 E59.84134
G1 X127.183 Y160.428 E59.87056
G1 X126.752 Y160.013 E59.90041
G1 X126.257 Y159.704 E59.92952
