;Generated with Cura_SteamEngine 15.01

;Layer count: 20
;LAYER:0
M107
G0 F9000 X118.800 Y142.800 Z0.300
;TYPE:SKIRT
G1 F1800 X181.200 Y142.800 E3.11315
G1 X181.200 Y157.200 E3.83157
G1 X118.800 Y157.200 E6.94472
G1 X118.800 Y142.800 E7.66314
G1 F2400 E3.66314
G0 F9000 X122.200 Y146.200
;TYPE:WALL-OUTER
G1 F2400 E7.66314
G1 F1800 X177.800 Y146.200 E10.43703
G1 X177.800 Y153.800 E10.81620
G1 X122.200 Y153.800 E13.59009
G1 X122.200 Y146.200 E13.96926
G0 F9000 X122.600 Y146.600
G1 F1800 X122.600 Y153.399 E14.30846
G1 X177.399 Y153.399 E17.04239
G1 X177.399 Y146.600 E17.38160
G1 X122.600 Y146.600 E20.11553
G1 F2400 E16.11553
G0 F9000 X129.290 Y153.538
;TYPE:FILL
G1 F2400 E20.11553
G1 F1800 X129.232 Y153.599 E20.12408
G1 X129.416 Y153.659 E20.13373
G0 F9000 X129.416 Y153.500
G0 X145.330 Y153.500
G0 X145.330 Y153.659
G1 F1800 X145.454 Y153.538 E20.14227
G1 X145.578 Y153.659 E20.15091
G0 F9000 X145.578 Y153.500
G0 X161.491 Y153.500
G0 X161.491 Y153.659
G1 F1800 X161.616 Y153.538 E20.15948
G1 X161.740 Y153.659 E20.16813
G1 F2400 E16.16813
G0 F9000 X177.538 Y153.295
G1 F2400 E20.16813
G1 F1800 X177.659 Y153.416 E20.17666
;LAYER:1
M106 S127
G0 F9000 X177.399 Y153.399 Z0.500
;TYPE:WALL-OUTER
G1 F1980 X177.399 Y146.600 E20.40280
G1 X122.600 Y146.600 E22.22542
G1 X122.600 Y153.399 E22.45156
G1 X177.399 Y153.399 E24.27418
G0 F9000 X177.800 Y153.800
G1 F1980 X122.200 Y153.800 E26.12344
G1 X122.200 Y146.200 E26.37622
G1 X177.800 Y146.200 E28.22548
G1 X177.800 Y153.800 E28.47826
G0 F9000 X177.659 Y153.416
;TYPE:FILL
G1 F2520 X177.538 Y153.295 E28.48395
G1 F2400 E24.48395
G0 F9000 X161.740 Y153.659
G1 F2400 E28.48395
G1 F2520 X161.616 Y153.538 E28.48961
G1 X161.491 Y153.659 E28.49540
G0 F9000 X161.491 Y153.500
G0 X145.578 Y153.500
G0 X145.578 Y153.659
G1 F2520 X145.454 Y153.538 E28.50102
G1 X145.330 Y153.659 E28.50678
G0 F9000 X145.330 Y153.500
G0 X129.416 Y153.500
G0 X129.416 Y153.659
G1 F2520 X129.293 Y153.538 E28.51242
G1 X129.168 Y153.659 E28.51820
;LAYER:2
M106 S255
G1 F2400 E24.51820
G0 F9000 X122.600 Y153.399 Z0.700
;TYPE:WALL-OUTER
G1 F2400 E28.51820
G1 F2220 X177.399 Y153.399 E30.34083
G1 X177.399 Y146.600 E30.56696
G1 X122.600 Y146.600 E32.38958
G1 X122.600 Y153.399 E32.61572
G0 F9000 X122.200 Y153.800
G1 F2220 X122.200 Y146.200 E32.86850
G1 X177.800 Y146.200 E34.71776
G1 X177.800 Y153.800 E34.97054
G1 X122.200 Y153.800 E36.81980
G1 F2400 E32.81980
G0 F9000 X129.168 Y153.659
;TYPE:FILL
G1 F2400 E36.81980
G1 F3300 X129.293 Y153.538 E36.82551
G1 X129.416 Y153.659 E36.83125
G0 F9000 X129.416 Y153.500
G0 X145.330 Y153.500
G0 X145.330 Y153.659
G1 F3300 X145.454 Y153.538 E36.83694
G1 X145.578 Y153.659 E36.84271
G0 F9000 X145.578 Y153.500
G0 X161.491 Y153.500
G0 X161.491 Y153.659
G1 F3300 X161.616 Y153.538 E36.84842
G1 X161.740 Y153.659 E36.85418
G1 F2400 E32.85418
G0 F9000 X177.538 Y153.295
G1 F2400 E36.85418
G1 F3300 X177.659 Y153.416 E36.85987
;LAYER:3
G0 F9000 X177.399 Y153.399 Z0.900
;TYPE:WALL-OUTER
G1 F2400 X177.399 Y146.600 E37.08601
G1 X122.600 Y146.600 E38.90863
G1 X122.600 Y153.399 E39.13477
G1 X177.399 Y153.399 E40.95739
G0 F9000 X177.800 Y153.800
G1 F2400 X122.200 Y153.800 E42.80665
G1 X122.200 Y146.200 E43.05943
G1 X177.800 Y146.200 E44.90869
G1 X177.800 Y153.800 E45.16147
G0 F9000 X177.659 Y153.416
;TYPE:FILL
G1 F4020 X177.538 Y153.295 E45.16716
G1 F2400 E41.16716
G0 F9000 X161.740 Y153.659
G1 F2400 E45.16716
G1 F4020 X161.616 Y153.538 E45.17282
G1 X161.491 Y153.659 E45.17861
G0 F9000 X161.491 Y153.500
G0 X145.578 Y153.500
G0 X145.578 Y153.659
G1 F4020 X145.454 Y153.538 E45.18423
G1 X145.330 Y153.659 E45.18999
G0 F9000 X145.330 Y153.500
G0 X129.416 Y153.500
G0 X129.416 Y153.659
G1 F4020 X129.293 Y153.538 E45.19563
G1 X129.168 Y153.659 E45.20142
;LAYER:4
G1 F2400 E41.20142
G0 F9000 X122.600 Y153.399 Z1.100
;TYPE:WALL-OUTER
G1 F2400 E45.20142
G1 F2700 X177.399 Y153.399 E47.02404
G1 X177.399 Y146.600 E47.25017
G1 X122.600 Y146.600 E49.07280
G1 X122.600 Y153.399 E49.29893
G0 F9000 X122.200 Y153.800
G1 F2700 X122.200 Y146.200 E49.55171
G1 X177.800 Y146.200 E51.40097
G1 X177.800 Y153.800 E51.65375
G1 X122.200 Y153.800 E53.50301
G1 F2400 E49.50301
G0 F9000 X129.168 Y153.659
;TYPE:FILL
G1 F2400 E53.50301
G1 F4800 X129.293 Y153.538 E53.50873
G1 X129.416 Y153.659 E53.51447
G0 F9000 X129.416 Y153.500
G0 X145.330 Y153.500
G0 X145.330 Y153.659
G1 F4800 X145.454 Y153.538 E53.52016
G1 X145.578 Y153.659 E53.52592
G0 F9000 X145.578 Y153.500
G0 X161.491 Y153.500
G0 X161.491 Y153.659
G1 F4800 X161.616 Y153.538 E53.53163
G1 X161.740 Y153.659 E53.53739
G1 F2400 E49.53739
G0 F9000 X177.538 Y153.295
G1 F2400 E53.53739
G1 F4800 X177.659 Y153.416 E53.54309
;LAYER:5
G0 F9000 X177.399 Y153.399 Z1.300
;TYPE:WALL-OUTER
G1 F2700 X177.399 Y146.600 E53.76922
G1 X122.600 Y146.600 E55.59184
G1 X122.600 Y153.399 E55.81798
G1 X177.399 Y153.399 E57.64060
G0 F9000 X177.800 Y153.800
G1 F2700 X122.200 Y153.800 E59.48986
G1 X122.200 Y146.200 E59.74264
G1 X177.800 Y146.200 E61.59191
G1 X177.800 Y153.800 E61.84468
G0 F9000 X177.659 Y153.416
;TYPE:FILL
G1 F4800 X177.538 Y153.295 E61.85037
G1 F2400 E57.85037
G0 F9000 X161.740 Y153.659
G1 F2400 E61.85037
G1 F4800 X161.616 Y153.538 E61.85604
G1 X161.491 Y153.659 E61.86182
G0 F9000 X161.491 Y153.500
G0 X145.578 Y153.500
G0 X145.578 Y153.659
G1 F4800 X145.454 Y153.538 E61.86744
G1 X145.330 Y153.659 E61.87320
G0 F9000 X145.330 Y153.500
G0 X129.416 Y153.500
G0 X129.416 Y153.659
G1 F4800 X129.293 Y153.538 E61.87884
G1 X129.168 Y153.659 E61.88463
;LAYER:6
G1 F2400 E57.88463
G0 F9000 X122.600 Y153.399 Z1.500
;TYPE:WALL-OUTER
G1 F2400 E61.88463
G1 F2700 X177.399 Y153.399 E63.70725
G1 X177.399 Y146.600 E63.93339
G1 X122.600 Y146.600 E65.75601
G1 X122.600 Y153.399 E65.98214
G0 F9000 X122.200 Y153.800
G1 F2700 X122.200 Y146.200 E66.23492
G1 X177.800 Y146.200 E68.08418
G1 X177.800 Y153.800 E68.33696
G1 X122.200 Y153.800 E70.18622
G1 F2400 E66.18622
G0 F9000 X129.168 Y153.659
;TYPE:FILL
G1 F2400 E70.18622
G1 F4800 X129.293 Y153.538 E70.19194
G1 X129.416 Y153.659 E70.19768
G0 F9000 X129.416 Y153.500
G0 X145.330 Y153.500
G0 X145.330 Y153.659
G1 F4800 X145.454 Y153.538 E70.20337
G1 X145.578 Y153.659 E70.20913
G0 F9000 X145.578 Y153.500
G0 X161.491 Y153.500
G0 X161.491 Y153.659
G1 F4800 X161.616 Y153.538 E70.21484
G1 X161.740 Y153.659 E70.22061
G1 F2400 E66.22061
G0 F9000 X177.538 Y153.295
G1 F2400 E70.22061
G1 F4800 X177.659 Y153.416 E70.22630
;LAYER:7
G0 F9000 X177.399 Y153.399 Z1.700
;TYPE:WALL-OUTER
G1 F2700 X177.399 Y146.600 E70.45243
G1 X122.600 Y146.600 E72.27506
G1 X122.600 Y153.399 E72.50119
G1 X177.399 Y153.399 E74.32381
G0 F9000 X177.800 Y153.800
G1 F2700 X122.200 Y153.800 E76.17308
G1 X122.200 Y146.200 E76.42585
G1 X177.800 Y146.200 E78.27512
G1 X177.800 Y153.800 E78.52789
G0 F9000 X177.659 Y153.416
;TYPE:FILL
G1 F4800 X177.538 Y153.295 E78.53359
G1 F2400 E74.53359
G0 F9000 X161.740 Y153.659
G1 F2400 E78.53359
G1 F4800 X161.616 Y153.538 E78.53925
G1 X161.491 Y153.659 E78.54503
G0 F9000 X161.491 Y153.500
G0 X145.578 Y153.500
G0 X145.578 Y153.659
G1 F4800 X145.454 Y153.538 E78.55065
G1 X145.330 Y153.659 E78.55641
G0 F9000 X145.330 Y153.500
G0 X129.416 Y153.500
G0 X129.416 Y153.659
G1 F4800 X129.293 Y153.538 E78.56205
G1 X129.168 Y153.659 E78.56784
;LAYER:8
G1 F2400 E74.56784
G0 F9000 X122.600 Y153.399 Z1.900
;TYPE:WALL-OUTER
G1 F2400 E78.56784
G1 F2700 X177.399 Y153.399 E80.39046
G1 X177.399 Y146.600 E80.61660
G1 X122.600 Y146.600 E82.43922
G1 X122.600 Y153.399 E82.66535
G0 F9000 X122.200 Y153.800
G1 F2700 X122.200 Y146.200 E82.91813
G1 X177.800 Y146.200 E84.76740
G1 X177.800 Y153.800 E85.02017
G1 X122.200 Y153.800 E86.86944
G1 F2400 E82.86944
G0 F9000 X129.168 Y153.659
;TYPE:FILL
G1 F2400 E86.86944
G1 F4800 X129.293 Y153.538 E86.87515
G1 X129.416 Y153.659 E86.88089
G0 F9000 X129.416 Y153.500
G0 X145.330 Y153.500
G0 X145.330 Y153.659
G1 F4800 X145.454 Y153.538 E86.88658
G1 X145.578 Y153.659 E86.89234
G0 F9000 X145.578 Y153.500
G0 X161.491 Y153.500
G0 X161.491 Y153.659
G1 F4800 X161.616 Y153.538 E86.89806
G1 X161.740 Y153.659 E86.90382
G1 F2400 E82.90382
G0 F9000 X177.538 Y153.295
G1 F2400 E86.90382
G1 F4800 X177.659 Y153.416 E86.90951
;LAYER:9
G0 F9000 X177.399 Y153.399 Z2.100
;TYPE:WALL-OUTER
G1 F2700 X177.399 Y146.600 E87.13564
G1 X122.600 Y146.600 E88.95827
G1 X122.600 Y153.399 E89.18440
G1 X177.399 Y153.399 E91.00702
G0 F9000 X177.800 Y153.800
G1 F2700 X122.200 Y153.800 E92.85629
G1 X122.200 Y146.200 E93.10907
G1 X177.800 Y146.200 E94.95833
G1 X177.800 Y153.800 E95.21111
G0 F9000 X177.659 Y153.416
;TYPE:FILL
G1 F4800 X177.538 Y153.295 E95.21680
G1 F2400 E91.21680
G0 F9000 X161.740 Y153.659
G1 F2400 E95.21680
G1 F4800 X161.616 Y153.538 E95.22246
G1 X161.491 Y153.659 E95.22825
G0 F9000 X161.491 Y153.500
G0 X145.578 Y153.500
G0 X145.578 Y153.659
G1 F4800 X145.454 Y153.538 E95.23386
G1 X145.330 Y153.659 E95.23963
G0 F9000 X145.330 Y153.500
G0 X129.416 Y153.500
G0 X129.416 Y153.659
G1 F4800 X129.293 Y153.538 E95.24526
G1 X129.168 Y153.659 E95.25105
;LAYER:10
G1 F2400 E91.25105
G0 F9000 X122.600 Y153.399 Z2.300
;TYPE:WALL-OUTER
G1 F2400 E95.25105
G1 F2700 X177.399 Y153.399 E97.07367
G1 X177.399 Y146.600 E97.29981
G1 X122.600 Y146.600 E99.12243
G1 X122.600 Y153.399 E99.34857
G0 F9000 X122.200 Y153.800
G1 F2700 X122.200 Y146.200 E99.60134
G1 X177.800 Y146.200 E101.45061
G1 X177.800 Y153.800 E101.70338
G1 X122.200 Y153.800 E103.55265
G1 F2400 E99.55265
G0 F9000 X129.168 Y153.659
;TYPE:FILL
G1 F2400 E103.55265
G1 F4800 X129.293 Y153.538 E103.55836
G1 X129.416 Y153.659 E103.56410
G0 F9000 X129.416 Y153.500
G0 X145.330 Y153.500
G0 X145.330 Y153.659
G1 F4800 X145.454 Y153.538 E103.56979
G1 X145.578 Y153.659 E103.57555
G0 F9000 X145.578 Y153.500
G0 X161.491 Y153.500
G0 X161.491 Y153.659
G1 F4800 X161.616 Y153.538 E103.58127
G1 X161.740 Y153.659 E103.58703
G1 F2400 E99.58703
G0 F9000 X177.538 Y153.295
G1 F2400 E103.58703
G1 F4800 X177.659 Y153.416 E103.59272
;LAYER:11
G0 F9000 X177.399 Y153.399 Z2.500
;TYPE:WALL-OUTER
G1 F2700 X177.399 Y146.600 E103.81886
G1 X122.600 Y146.600 E105.64148
G1 X122.600 Y153.399 E105.86761
G1 X177.399 Y153.399 E107.69024
G0 F9000 X177.800 Y153.800
G1 F2700 X122.200 Y153.800 E109.53950
G1 X122.200 Y146.200 E109.79228
G1 X177.800 Y146.200 E111.64154
G1 X177.800 Y153.800 E111.89432
G0 F9000 X177.659 Y153.416
;TYPE:FILL
G1 F4800 X177.538 Y153.295 E111.90001
G1 F2400 E107.90001
G0 F9000 X161.740 Y153.659
G1 F2400 E111.90001
G1 F4800 X161.616 Y153.538 E111.90567
G1 X161.491 Y153.659 E111.91146
G0 F9000 X161.491 Y153.500
G0 X145.578 Y153.500
G0 X145.578 Y153.659
G1 F4800 X145.454 Y153.538 E111.91708
G1 X145.330 Y153.659 E111.92284
G0 F9000 X145.330 Y153.500
G0 X129.416 Y153.500
G0 X129.416 Y153.659
G1 F4800 X129.293 Y153.538 E111.92848
G1 X129.168 Y153.659 E111.93426
;LAYER:12
G1 F2400 E107.93426
G0 F9000 X122.600 Y153.399 Z2.700
;TYPE:WALL-OUTER
G1 F2400 E111.93426
G1 F2700 X177.399 Y153.399 E113.75688
G1 X177.399 Y146.600 E113.98302
G1 X122.600 Y146.600 E115.80564
G1 X122.600 Y153.399 E116.03178
G0 F9000 X122.200 Y153.800
G1 F2700 X122.200 Y146.200 E116.28455
G1 X177.800 Y146.200 E118.13382
G1 X177.800 Y153.800 E118.38660
G1 X122.200 Y153.800 E120.23586
G1 F2400 E116.23586
G0 F9000 X129.168 Y153.659
;TYPE:FILL
G1 F2400 E120.23586
G1 F4800 X129.293 Y153.538 E120.24157
G1 X129.416 Y153.659 E120.24731
G0 F9000 X129.416 Y153.500
G0 X145.330 Y153.500
G0 X145.330 Y153.659
G1 F4800 X145.454 Y153.538 E120.25300
G1 X145.578 Y153.659 E120.25876
G0 F9000 X145.578 Y153.500
G0 X161.491 Y153.500
G0 X161.491 Y153.659
G1 F4800 X161.616 Y153.538 E120.26448
G1 X161.740 Y153.659 E120.27024
G1 F2400 E116.27024
G0 F9000 X177.538 Y153.295
G1 F2400 E120.27024
G1 F4800 X177.659 Y153.416 E120.27593
;LAYER:13
G0 F9000 X177.399 Y153.399 Z2.900
;TYPE:WALL-OUTER
G1 F2700 X177.399 Y146.600 E120.50207
G1 X122.600 Y146.600 E122.32469
G1 X122.600 Y153.399 E122.55083
G1 X177.399 Y153.399 E124.37345
G0 F9000 X177.800 Y153.800
G1 F2700 X122.200 Y153.800 E126.22271
G1 X122.200 Y146.200 E126.47549
G1 X177.800 Y146.200 E128.32475
G1 X177.800 Y153.800 E128.57753
G0 F9000 X177.659 Y153.416
;TYPE:FILL
G1 F4800 X177.538 Y153.295 E128.58322
G1 F2400 E124.58322
G0 F9000 X161.740 Y153.659
G1 F2400 E128.58322
G1 F4800 X161.616 Y153.538 E128.58888
G1 X161.491 Y153.659 E128.59467
G0 F9000 X161.491 Y153.500
G0 X145.578 Y153.500
G0 X145.578 Y153.659
G1 F4800 X145.454 Y153.538 E128.60029
G1 X145.330 Y153.659 E128.60605
G0 F9000 X145.330 Y153.500
G0 X129.416 Y153.500
G0 X129.416 Y153.659
G1 F4800 X129.293 Y153.538 E128.61169
G1 X129.168 Y153.659 E128.61747
;LAYER:14
G1 F2400 E124.61747
G0 F9000 X122.600 Y153.399 Z3.100
;TYPE:WALL-OUTER
G1 F2400 E128.61747
G1 F2700 X177.399 Y153.399 E130.44010
G1 X177.399 Y146.600 E130.66623
G1 X122.600 Y146.600 E132.48885
G1 X122.600 Y153.399 E132.71499
G0 F9000 X122.200 Y153.800
G1 F2700 X122.200 Y146.200 E132.96777
G1 X177.800 Y146.200 E134.81703
G1 X177.800 Y153.800 E135.06981
G1 X122.200 Y153.800 E136.91907
G1 F2400 E132.91907
G0 F9000 X129.168 Y153.659
;TYPE:FILL
G1 F2400 E136.91907
G1 F4800 X129.293 Y153.538 E136.92478
G1 X129.416 Y153.659 E136.93052
G0 F9000 X129.416 Y153.500
G0 X145.330 Y153.500
G0 X145.330 Y153.659
G1 F4800 X145.454 Y153.538 E136.93621
G1 X145.578 Y153.659 E136.94198
G0 F9000 X145.578 Y153.500
G0 X161.491 Y153.500
G0 X161.491 Y153.659
G1 F4800 X161.616 Y153.538 E136.94769
G1 X161.740 Y153.659 E136.95345
G1 F2400 E132.95345
G0 F9000 X177.538 Y153.295
G1 F2400 E136.95345
G1 F4800 X177.659 Y153.416 E136.95914
;LAYER:15
G0 F9000 X177.399 Y153.399 Z3.300
;TYPE:WALL-OUTER
G1 F2700 X177.399 Y146.600 E137.18528
G1 X122.600 Y146.600 E139.00790
G1 X122.600 Y153.399 E139.23404
G1 X177.399 Y153.399 E141.05666
G0 F9000 X177.800 Y153.800
G1 F2700 X122.200 Y153.800 E142.90592
G1 X122.200 Y146.200 E143.15870
G1 X177.800 Y146.200 E145.00796
G1 X177.800 Y153.800 E145.26074
G0 F9000 X177.659 Y153.416
;TYPE:FILL
G1 F4800 X177.538 Y153.295 E145.26643
G1 F2400 E141.26643
G0 F9000 X161.740 Y153.659
G1 F2400 E145.26643
G1 F4800 X161.616 Y153.538 E145.27209
G1 X161.491 Y153.659 E145.27788
G0 F9000 X161.491 Y153.500
G0 X145.578 Y153.500
G0 X145.578 Y153.659
G1 F4800 X145.454 Y153.538 E145.28350
G1 X145.330 Y153.659 E145.28926
G0 F9000 X145.330 Y153.500
G0 X129.416 Y153.500
G0 X129.416 Y153.659
G1 F4800 X129.293 Y153.538 E145.29490
G1 X129.168 Y153.659 E145.30069
;LAYER:16
G1 F2400 E141.30069
G0 F9000 X122.600 Y153.399 Z3.500
;TYPE:WALL-OUTER
G1 F2400 E145.30069
G1 F2700 X177.399 Y153.399 E147.12331
G1 X177.399 Y146.600 E147.34944
G1 X122.600 Y146.600 E149.17207
G1 X122.600 Y153.399 E149.39820
G0 F9000 X122.200 Y153.800
G1 F2700 X122.200 Y146.200 E149.65098
G1 X177.800 Y146.200 E151.50024
G1 X177.800 Y153.800 E151.75302
G1 X122.200 Y153.800 E153.60228
G1 F2400 E149.60228
G0 F9000 X129.168 Y153.659
;TYPE:FILL
G1 F2400 E153.60228
G1 F4800 X129.293 Y153.538 E153.60800
G1 X129.416 Y153.659 E153.61373
G0 F9000 X129.416 Y153.500
G0 X145.330 Y153.500
G0 X145.330 Y153.659
G1 F4800 X145.454 Y153.538 E153.61943
G1 X145.578 Y153.659 E153.62519
G0 F9000 X145.578 Y153.500
G0 X161.491 Y153.500
G0 X161.491 Y153.659
G1 F4800 X161.616 Y153.538 E153.63090
G1 X161.740 Y153.659 E153.63666
G1 F2400 E149.63666
G0 F9000 X177.538 Y153.295
G1 F2400 E153.63666
G1 F4800 X177.659 Y153.416 E153.64236
;LAYER:17
G0 F9000 X177.399 Y153.399 Z3.700
;TYPE:WALL-OUTER
G1 F2700 X177.399 Y146.600 E153.86849
G1 X122.600 Y146.600 E155.69111
G1 X122.600 Y153.399 E155.91725
G1 X177.399 Y153.399 E157.73987
G0 F9000 X177.800 Y153.800
G1 F2700 X122.200 Y153.800 E159.58913
G1 X122.200 Y146.200 E159.84191
G1 X177.800 Y146.200 E161.69118
G1 X177.800 Y153.800 E161.94395
G0 F9000 X177.659 Y153.416
;TYPE:FILL
G1 F4800 X177.538 Y153.295 E161.94964
G1 F2400 E157.94964
G0 F9000 X161.740 Y153.659
G1 F2400 E161.94964
G1 F4800 X161.616 Y153.538 E161.95531
G1 X161.491 Y153.659 E161.96109
G0 F9000 X161.491 Y153.500
G0 X145.578 Y153.500
G0 X145.578 Y153.659
G1 F4800 X145.454 Y153.538 E161.96671
G1 X145.330 Y153.659 E161.97247
G0 F9000 X145.330 Y153.500
G0 X129.416 Y153.500
G0 X129.416 Y153.659
G1 F4800 X129.293 Y153.538 E161.97811
